!! Stephen C. Foster, "Down Among the Cane-Brakes"
!! from 'Stephen Foster Song Book' Dover Publications (New York) pp. 30-31
!! NOTE:  Leading and trailing bars of rest have been omitted.
**kern
*M4/4
*88
*G:
=1
4d
8g
8a
8b
8ee
4dd
=2
4g
8a
8b
8b
8a
4a
=3
4d
8g
8a
8b
8ee
4dd;
=4
8.g
16g
8.a
16a
8b'
4.g'
=5
8.dd
16dd
8.cc
16cc
8b
8dd
8r
16dd
16cc
=6
8b
8b
8cc#
8cc#
2dd
=7
4.b
8cc
8dd
8ee
8.g
16a
=8
8b
8dd
8.cc
16ee
2dd
=9
4.b
8cc
8dd
8ee
{16a
16dd;}
8cc
=10
4b
8.a
16cc
2b
=11
4d
8g
8a
8b
8ee
4dd
=12
4g
8a
8b
8b
8a
4a
=13
4d
8g
8a
8b
8ee
4dd;
=14
8.g
16g
8.a
16a
8b'
4.g'
=15
8.dd
16dd
8.cc
16cc
8b
8dd
8r
16dd
16cc
=16
8b
8b
8cc#
8cc#
2dd
=17
4.b
8cc
8dd
8ee
8.g
16a
=18
8b
8dd
8.cc
16ee
2dd
=19
4.b
8cc
8dd
8ee
{16a
16dd;}
8cc
=20
4b
8.a
16cc
2b
=21
1r
=22
1r
=23
4d
8g
8a
8b
8ee
4dd
=24
4g
8a
8b
8b
8a
4a
=25
4d
8g
8a
8b
8ee
4dd;
=26
8.g
16g
8.a
16a
8b'
4g'
==
*-
